portal/static/assets/kom-i-gang/samvirke.svg

<svg width="861" height="422" fill="none" xmlns="http://www.w3.org/2000/svg"><path fill="#F4F2EF" d="M.5.5h860v421H.5z"/><path d="M372 140a2 2 0 1 0 0-4v4Zm1.414 147.414a2 2 0 0 0 0-2.828l-12.728-12.728a2 2 0 1 0-2.828 2.828L369.172 286l-11.314 11.314a2 2 0 1 0 2.828 2.828l12.728-12.728ZM300 212c0-39.765 32.236-72 72-72v-4c-41.974 0-76 34.026-76 76h4Zm72 72c-39.765 0-72-32.236-72-72h-4c0 41.974 34.026 76 76 76v-4Z" fill="#1B1917"/><path d="M217 190a4 4 0 0 1 4-4h185.456a4 4 0 0 1 4 4v44.364a4 4 0 0 1-4 4H221a4 4 0 0 1-4-4V190Z" fill="#D9DDFF"/><path d="M234.567 221.682h3.211v-6.421l3.476-3.977 8.012 10.398h3.888l-9.868-12.695 8.248-9.397h-3.682l-10.074 11.606V199.59h-3.211v22.092Zm27.051.442c4.183 0 7.923-3.122 7.923-8.424 0-5.332-3.74-8.395-7.923-8.395s-7.953 3.122-7.953 8.395c0 5.361 3.741 8.424 7.953 8.424Zm0-2.798c-2.71 0-4.919-1.886-4.919-5.626 0-3.712 2.179-5.627 4.919-5.627 2.71 0 4.919 1.886 4.919 5.627 0 3.77-2.18 5.626-4.919 5.626Zm22.332 2.356h3.034V210.96c0-4.242-2.475-5.655-5.332-5.655-2.474 0-4.507 1.266-5.538 3.269v-2.828h-3.063v15.936h3.063v-9.573c0-2.74 2.239-4.065 4.478-4.065 2.091 0 3.358.677 3.358 3.329v10.309Zm12.488.442c3.623 0 6.157-2.18 6.157-4.949 0-2.474-1.444-3.741-3.8-4.389l-2.828-.765c-1.561-.442-2.032-1.179-2.032-2.092 0-1.178.972-1.944 2.562-1.944 1.532 0 2.887.884 3.064 2.651h2.798c-.206-3.888-3.122-5.331-5.773-5.331-2.828 0-5.656 1.472-5.656 4.742 0 2.15 1.09 3.741 3.299 4.359l3.24.914c1.768.5 2.092 1.148 2.092 2.003 0 1.355-1.267 2.091-2.887 2.091s-3.152-.53-3.535-2.592h-2.916c.324 3.594 3.299 5.302 6.215 5.302Zm14.644 0c2.386 0 4.271-1.267 5.361-3.211v2.769h3.034v-15.936h-3.034v9.662c0 2.651-2.15 3.947-4.242 3.947-2.003 0-3.24-.618-3.24-3.24v-10.369h-3.063v10.722c0 4.272 2.474 5.656 5.184 5.656Zm32.969-.442h3.034v-10.604c0-4.36-2.298-5.773-4.831-5.773-2.356 0-4.212 1.384-5.39 3.446-.678-2.563-2.533-3.446-4.537-3.446-2.297 0-4.123 1.266-5.125 3.269v-2.828h-3.063v15.936h3.063v-9.573c0-2.71 2.003-4.065 4.036-4.065 1.738 0 2.857.648 2.857 3.329v10.309h3.034v-9.573c0-2.71 2.032-4.065 4.065-4.065 1.738 0 2.857.648 2.857 3.358v10.28Zm14.541.442c3.387 0 6.51-2.239 7.01-5.773h-2.798c-.442 1.737-2.18 3.004-4.212 3.004-2.651 0-4.831-1.443-5.037-4.919h12.106v-.854c0-5.185-3.417-8.277-7.364-8.277-4.124 0-7.865 3.092-7.865 8.247 0 5.479 3.241 8.572 8.16 8.572Zm-.295-14.08c2.239 0 3.947 1.267 4.33 4.094h-8.925c.471-3.122 2.681-4.094 4.595-4.094Zm21.672 13.638h3.034V210.96c0-4.242-2.474-5.655-5.331-5.655-2.474 0-4.507 1.266-5.538 3.269v-2.828h-3.063v15.936h3.063v-9.573c0-2.74 2.239-4.065 4.477-4.065 2.092 0 3.358.677 3.358 3.329v10.309Zm14.669-.029v-2.504c-.412.118-1.09.177-1.473.177-1.208 0-2.091-.383-2.091-1.532v-9.367h3.299v-2.681h-3.299v-4.035h-2.946v4.035h-2.592v2.681h2.474v9.927c0 2.474 1.768 3.623 4.419 3.623.824 0 1.649-.118 2.209-.324ZM224.364 190h178.728v-8H224.364v8Zm182.092 3.364V231h8v-37.636h-8Zm-3.364 41H224.364v8h178.728v-8ZM221 231v-37.636h-8V231h8Zm3.364 3.364A3.364 3.364 0 0 1 221 231h-8c0 6.276 5.088 11.364 11.364 11.364v-8ZM406.456 231a3.364 3.364 0 0 1-3.364 3.364v8c6.276 0 11.364-5.088 11.364-11.364h-8Zm-3.364-41a3.364 3.364 0 0 1 3.364 3.364h8c0-6.276-5.088-11.364-11.364-11.364v8Zm-178.728-8c-6.276 0-11.364 5.088-11.364 11.364h8a3.364 3.364 0 0 1 3.364-3.364v-8ZM491.5 283a2 2 0 1 0 0 4v-4Zm-1.414-147.414a2 2 0 0 0 0 2.828l12.728 12.728a2 2 0 1 0 2.828-2.828L494.328 137l11.314-11.314a2 2 0 1 0-2.828-2.828l-12.728 12.728ZM563.5 211c0 39.765-32.235 72-72 72v4c41.974 0 76-34.026 76-76h-4Zm-72-72c39.765 0 72 32.235 72 72h4c0-41.974-34.026-76-76-76v4Z" fill="#1B1917"/><path d="M452.5 189a4 4 0 0 1 4-4h180.456a4 4 0 0 1 4 4v44.364a4 4 0 0 1-4 4H456.5a4 4 0 0 1-4-4V189Z" fill="#C8ECD2"/><path d="M469.924 220.682h8.277c4.242 0 7.04-2.504 7.04-6.303 0-2.563-1.679-4.36-4.094-5.155 1.767-.913 3.151-2.563 3.151-4.772 0-3.653-2.592-5.862-6.539-5.862h-7.835v22.092Zm8.1-9.75c2.298 0 3.889 1.326 3.889 3.505 0 1.915-1.326 3.182-3.741 3.182h-5.067v-6.687h4.919Zm-.618-9.278c2.474 0 3.564 1.03 3.564 2.886 0 2.209-1.208 3.329-3.388 3.329h-4.477v-6.215h4.301Zm12.687.117c1.149 0 1.974-.707 1.974-1.914 0-1.179-.825-1.885-1.974-1.885-1.178 0-1.974.706-1.974 1.885 0 1.207.796 1.914 1.974 1.914Zm-1.532 18.911h3.064v-15.936h-3.064v15.936Zm18.992 0h3.034v-22.681h-3.034v9.161c-.825-1.502-2.74-2.857-5.302-2.857-3.653 0-7.158 3.034-7.158 8.012 0 5.42 3.417 8.807 7.629 8.807 2.268 0 3.918-1.237 4.831-2.739v2.297Zm-4.595-2.356c-2.622 0-4.861-1.944-4.861-5.774 0-4.006 2.21-5.479 4.89-5.479 1.974 0 4.566 1.444 4.566 4.301v2.18c0 2.945-2.209 4.772-4.595 4.772Zm15.333-5.744c0-2.975 1.679-4.89 4.624-4.89.442 0 .913.029 1.326.118v-3.211a5.023 5.023 0 0 0-1.12-.118c-2.68 0-4.212 2.062-4.83 3.859v-3.594h-3.064v15.936h3.064v-8.1Zm12.829 6.009c-1.738 0-2.651-1.031-2.651-2.268 0-1.768 1.267-2.534 3.8-2.534h3.358v1.031c0 2.593-2.651 3.771-4.507 3.771Zm9.308-.501c-.235.029-.383.029-.471.029-.854 0-1.267-.471-1.267-1.237v-7.393c0-3.24-2.356-5.184-6.274-5.184-3.034 0-5.803 1.531-6.244 5.243h2.71c.265-1.532 1.443-2.533 3.387-2.533 2.033 0 3.358.942 3.358 2.975v1.472h-3.387c-3.624 0-6.746 1.238-6.746 5.067 0 2.356 1.502 4.595 5.067 4.595 2.091 0 4.153-1.031 5.184-2.769.324 1.443 1.561 2.474 3.535 2.474.412 0 .795-.088 1.148-.176v-2.563Zm7.885-5.567c-1.885 0-3.092-1.09-3.092-2.857 0-1.797 1.207-2.887 3.092-2.887 1.886 0 3.093 1.09 3.093 2.887 0 1.767-1.237 2.857-3.093 2.857Zm-3.741 9.337c0-1.266.943-2.091 3.123-2.091h2.651c1.797 0 2.769.648 2.769 1.708 0 1.621-1.856 2.416-4.389 2.416-2.681 0-4.154-.795-4.154-2.033Zm3.8-6.833c3.8 0 5.98-2.298 5.98-5.303 0-1.03-.471-2.15-1.061-2.827l2.563-1.65-1.325-2.003-2.975 1.944c-.766-.501-1.856-.883-3.241-.883-3.21 0-6.038 1.973-6.038 5.361 0 1.443.589 2.739 1.591 3.682-.943.5-1.738 1.413-1.738 2.621 0 1.09.648 2.18 1.973 2.798-1.414.531-2.563 1.65-2.563 3.3 0 2.857 2.976 4.271 7.011 4.271 4.477 0 7.423-2.033 7.423-5.273 0-2.769-2.357-3.947-5.155-3.947h-4.124c-1.178 0-1.914-.501-1.914-1.384 0-.59.265-1.002.677-1.326.854.412 1.856.619 2.916.619Zm15.269 6.097c3.623 0 6.156-2.18 6.156-4.949 0-2.474-1.443-3.741-3.8-4.389l-2.828-.765c-1.561-.442-2.032-1.179-2.032-2.092 0-1.178.972-1.944 2.563-1.944 1.531 0 2.886.884 3.063 2.651h2.798c-.206-3.888-3.122-5.331-5.773-5.331-2.828 0-5.656 1.472-5.656 4.742 0 2.15 1.09 3.741 3.299 4.359l3.241.914c1.767.5 2.091 1.148 2.091 2.003 0 1.355-1.267 2.091-2.887 2.091s-3.151-.53-3.534-2.592h-2.917c.324 3.594 3.3 5.302 6.216 5.302Zm11.492 5.449h2.827l8.101-21.827h-3.181l-4.124 12.107-4.625-12.107h-3.152l6.363 15.877-2.209 5.95Zm20.69-5.92v-2.504c-.412.118-1.09.177-1.473.177-1.207 0-2.091-.383-2.091-1.532v-9.367h3.299v-2.681h-3.299v-4.035h-2.946v4.035h-2.592v2.681h2.474v9.927c0 2.474 1.768 3.623 4.419 3.623.825 0 1.649-.118 2.209-.324Zm10.123.471c3.387 0 6.51-2.239 7.01-5.773h-2.798c-.442 1.737-2.18 3.004-4.212 3.004-2.651 0-4.831-1.443-5.037-4.919h12.106v-.854c0-5.185-3.417-8.277-7.364-8.277-4.124 0-7.865 3.092-7.865 8.247 0 5.479 3.241 8.572 8.16 8.572Zm-.295-14.08c2.239 0 3.947 1.267 4.33 4.094h-8.925c.471-3.122 2.681-4.094 4.595-4.094Zm13.837 5.538c0-2.975 1.679-4.89 4.625-4.89.442 0 .913.029 1.325.118v-3.211a5.009 5.009 0 0 0-1.119-.118c-2.68 0-4.212 2.062-4.831 3.859v-3.594h-3.063v15.936h3.063v-8.1ZM459.864 189h173.728v-8H459.864v8Zm177.092 3.364V230h8v-37.636h-8Zm-3.364 41H459.864v8h173.728v-8ZM456.5 230v-37.636h-8V230h8Zm3.364 3.364A3.364 3.364 0 0 1 456.5 230h-8c0 6.276 5.088 11.364 11.364 11.364v-8ZM636.956 230a3.364 3.364 0 0 1-3.364 3.364v8c6.276 0 11.364-5.088 11.364-11.364h-8Zm-3.364-41a3.364 3.364 0 0 1 3.364 3.364h8c0-6.276-5.088-11.364-11.364-11.364v8Zm-173.728-8c-6.276 0-11.364 5.088-11.364 11.364h8a3.364 3.364 0 0 1 3.364-3.364v-8Z" fill="#1B1917"/><path stroke="#C8C5C3" d="M.5.5h860v421H.5z"/></svg>

<svg width="861" height="422" viewBox="0 0 861 422" fill="none" xmlns="http://www.w3.org/2000/svg">
<rect x="0.5" y="0.5" width="860" height="421" fill="#F4F2EF"/>
<path d="M372 140C373.105 140 374 139.105 374 138C374 136.895 373.105 136 372 136L372 140ZM373.414 287.414C374.195 286.633 374.195 285.367 373.414 284.586L360.686 271.858C359.905 271.077 358.639 271.077 357.858 271.858C357.077 272.639 357.077 273.905 357.858 274.686L369.172 286L357.858 297.314C357.077 298.095 357.077 299.361 357.858 300.142C358.639 300.923 359.905 300.923 360.686 300.142L373.414 287.414ZM300 212C300 172.235 332.236 140 372 140L372 136C330.026 136 296 170.026 296 212L300 212ZM372 284C332.235 284 300 251.764 300 212L296 212C296 253.974 330.026 288 372 288L372 284Z" fill="#1B1917"/>
<path d="M217 190C217 187.791 218.791 186 221 186H406.456C408.665 186 410.456 187.791 410.456 190V234.364C410.456 236.573 408.665 238.364 406.456 238.364H221C218.791 238.364 217 236.573 217 234.364V190Z" fill="#D9DDFF"/>
<path d="M234.567 221.682H237.778V215.261L241.254 211.284L249.266 221.682H253.154L243.286 208.987L251.534 199.59H247.852L237.778 211.196V199.59H234.567V221.682ZM261.618 222.124C265.801 222.124 269.541 219.002 269.541 213.7C269.541 208.368 265.801 205.305 261.618 205.305C257.435 205.305 253.665 208.427 253.665 213.7C253.665 219.061 257.406 222.124 261.618 222.124ZM261.618 219.326C258.908 219.326 256.699 217.44 256.699 213.7C256.699 209.988 258.878 208.073 261.618 208.073C264.328 208.073 266.537 209.959 266.537 213.7C266.537 217.47 264.357 219.326 261.618 219.326ZM283.95 221.682H286.984V210.96C286.984 206.718 284.509 205.305 281.652 205.305C279.178 205.305 277.145 206.571 276.114 208.574V205.746H273.051V221.682H276.114V212.109C276.114 209.369 278.353 208.044 280.592 208.044C282.683 208.044 283.95 208.721 283.95 211.373V221.682ZM296.438 222.124C300.061 222.124 302.595 219.944 302.595 217.175C302.595 214.701 301.151 213.434 298.795 212.786L295.967 212.021C294.406 211.579 293.935 210.842 293.935 209.929C293.935 208.751 294.907 207.985 296.497 207.985C298.029 207.985 299.384 208.869 299.561 210.636H302.359C302.153 206.748 299.237 205.305 296.586 205.305C293.758 205.305 290.93 206.777 290.93 210.047C290.93 212.197 292.02 213.788 294.229 214.406L297.469 215.32C299.237 215.82 299.561 216.468 299.561 217.323C299.561 218.678 298.294 219.414 296.674 219.414C295.054 219.414 293.522 218.884 293.139 216.822H290.223C290.547 220.416 293.522 222.124 296.438 222.124ZM311.082 222.124C313.468 222.124 315.353 220.857 316.443 218.913V221.682H319.477V205.746H316.443V215.408C316.443 218.059 314.293 219.355 312.201 219.355C310.198 219.355 308.961 218.737 308.961 216.115V205.746H305.898V216.468C305.898 220.74 308.372 222.124 311.082 222.124ZM344.051 221.682H347.085V211.078C347.085 206.718 344.787 205.305 342.254 205.305C339.898 205.305 338.042 206.689 336.864 208.751C336.186 206.188 334.331 205.305 332.327 205.305C330.03 205.305 328.204 206.571 327.202 208.574V205.746H324.139V221.682H327.202V212.109C327.202 209.399 329.205 208.044 331.238 208.044C332.976 208.044 334.095 208.692 334.095 211.373V221.682H337.129V212.109C337.129 209.399 339.161 208.044 341.194 208.044C342.932 208.044 344.051 208.692 344.051 211.402V221.682ZM358.592 222.124C361.979 222.124 365.102 219.885 365.602 216.351H362.804C362.362 218.088 360.624 219.355 358.592 219.355C355.941 219.355 353.761 217.912 353.555 214.436H365.661V213.582C365.661 208.397 362.244 205.305 358.297 205.305C354.173 205.305 350.432 208.397 350.432 213.552C350.432 219.031 353.673 222.124 358.592 222.124ZM358.297 208.044C360.536 208.044 362.244 209.311 362.627 212.138H353.702C354.173 209.016 356.383 208.044 358.297 208.044ZM379.969 221.682H383.003V210.96C383.003 206.718 380.529 205.305 377.672 205.305C375.198 205.305 373.165 206.571 372.134 208.574V205.746H369.071V221.682H372.134V212.109C372.134 209.369 374.373 208.044 376.611 208.044C378.703 208.044 379.969 208.721 379.969 211.373V221.682ZM394.638 221.653V219.149C394.226 219.267 393.548 219.326 393.165 219.326C391.957 219.326 391.074 218.943 391.074 217.794V208.427H394.373V205.746H391.074V201.711H388.128V205.746H385.536V208.427H388.01V218.354C388.01 220.828 389.778 221.977 392.429 221.977C393.253 221.977 394.078 221.859 394.638 221.653Z" fill="#1B1917"/>
<path d="M224.364 190H403.092V182H224.364V190ZM406.456 193.364V231H414.456V193.364H406.456ZM403.092 234.364H224.364V242.364H403.092V234.364ZM221 231V193.364H213V231H221ZM224.364 234.364C222.506 234.364 221 232.858 221 231H213C213 237.276 218.088 242.364 224.364 242.364V234.364ZM406.456 231C406.456 232.858 404.95 234.364 403.092 234.364V242.364C409.368 242.364 414.456 237.276 414.456 231H406.456ZM403.092 190C404.95 190 406.456 191.506 406.456 193.364H414.456C414.456 187.088 409.368 182 403.092 182V190ZM224.364 182C218.088 182 213 187.088 213 193.364H221C221 191.506 222.506 190 224.364 190V182Z" fill="#1B1917"/>
<path d="M491.5 283C490.395 283 489.5 283.895 489.5 285C489.5 286.105 490.395 287 491.5 287V283ZM490.086 135.586C489.305 136.367 489.305 137.633 490.086 138.414L502.814 151.142C503.595 151.923 504.861 151.923 505.642 151.142C506.423 150.361 506.423 149.095 505.642 148.314L494.328 137L505.642 125.686C506.423 124.905 506.423 123.639 505.642 122.858C504.861 122.077 503.595 122.077 502.814 122.858L490.086 135.586ZM563.5 211C563.5 250.765 531.265 283 491.5 283V287C533.474 287 567.5 252.974 567.5 211H563.5ZM491.5 139C531.265 139 563.5 171.235 563.5 211H567.5C567.5 169.026 533.474 135 491.5 135V139Z" fill="#1B1917"/>
<path d="M452.5 189C452.5 186.791 454.291 185 456.5 185H636.956C639.165 185 640.956 186.791 640.956 189V233.364C640.956 235.573 639.165 237.364 636.956 237.364H456.5C454.291 237.364 452.5 235.573 452.5 233.364V189Z" fill="#C8ECD2"/>
<path d="M469.924 220.682H478.201C482.443 220.682 485.241 218.178 485.241 214.379C485.241 211.816 483.562 210.019 481.147 209.224C482.914 208.311 484.298 206.661 484.298 204.452C484.298 200.799 481.706 198.59 477.759 198.59H469.924V220.682ZM478.024 210.932C480.322 210.932 481.913 212.258 481.913 214.437C481.913 216.352 480.587 217.619 478.172 217.619H473.105V210.932H478.024ZM477.406 201.654C479.88 201.654 480.97 202.684 480.97 204.54C480.97 206.749 479.762 207.869 477.582 207.869H473.105V201.654H477.406ZM490.093 201.771C491.242 201.771 492.067 201.064 492.067 199.857C492.067 198.678 491.242 197.972 490.093 197.972C488.915 197.972 488.119 198.678 488.119 199.857C488.119 201.064 488.915 201.771 490.093 201.771ZM488.561 220.682H491.625V204.746H488.561V220.682ZM507.553 220.682H510.587V198.001H507.553V207.162C506.728 205.66 504.813 204.305 502.251 204.305C498.598 204.305 495.093 207.339 495.093 212.317C495.093 217.737 498.51 221.124 502.722 221.124C504.99 221.124 506.64 219.887 507.553 218.385V220.682ZM502.958 218.326C500.336 218.326 498.097 216.382 498.097 212.552C498.097 208.546 500.307 207.073 502.987 207.073C504.961 207.073 507.553 208.517 507.553 211.374V213.554C507.553 216.499 505.344 218.326 502.958 218.326ZM518.291 212.582C518.291 209.607 519.97 207.692 522.915 207.692C523.357 207.692 523.828 207.721 524.241 207.81V204.599C523.887 204.511 523.445 204.481 523.121 204.481C520.441 204.481 518.909 206.543 518.291 208.34V204.746H515.227V220.682H518.291V212.582ZM531.12 218.591C529.382 218.591 528.469 217.56 528.469 216.323C528.469 214.555 529.736 213.789 532.269 213.789H535.627V214.82C535.627 217.413 532.976 218.591 531.12 218.591ZM540.428 218.09C540.193 218.119 540.045 218.119 539.957 218.119C539.103 218.119 538.69 217.648 538.69 216.882V209.489C538.69 206.249 536.334 204.305 532.416 204.305C529.382 204.305 526.613 205.836 526.172 209.548H528.882C529.147 208.016 530.325 207.015 532.269 207.015C534.302 207.015 535.627 207.957 535.627 209.99V211.462H532.24C528.616 211.462 525.494 212.7 525.494 216.529C525.494 218.885 526.996 221.124 530.561 221.124C532.652 221.124 534.714 220.093 535.745 218.355C536.069 219.798 537.306 220.829 539.28 220.829C539.692 220.829 540.075 220.741 540.428 220.653V218.09ZM548.313 212.523C546.428 212.523 545.221 211.433 545.221 209.666C545.221 207.869 546.428 206.779 548.313 206.779C550.199 206.779 551.406 207.869 551.406 209.666C551.406 211.433 550.169 212.523 548.313 212.523ZM544.572 221.86C544.572 220.594 545.515 219.769 547.695 219.769H550.346C552.143 219.769 553.115 220.417 553.115 221.477C553.115 223.098 551.259 223.893 548.726 223.893C546.045 223.893 544.572 223.098 544.572 221.86ZM548.372 215.027C552.172 215.027 554.352 212.729 554.352 209.724C554.352 208.694 553.881 207.574 553.291 206.897L555.854 205.247L554.529 203.244L551.554 205.188C550.788 204.687 549.698 204.305 548.313 204.305C545.103 204.305 542.275 206.278 542.275 209.666C542.275 211.109 542.864 212.405 543.866 213.348C542.923 213.848 542.128 214.761 542.128 215.969C542.128 217.059 542.776 218.149 544.101 218.767C542.687 219.298 541.538 220.417 541.538 222.067C541.538 224.924 544.514 226.338 548.549 226.338C553.026 226.338 555.972 224.305 555.972 221.065C555.972 218.296 553.615 217.118 550.817 217.118H546.693C545.515 217.118 544.779 216.617 544.779 215.734C544.779 215.144 545.044 214.732 545.456 214.408C546.31 214.82 547.312 215.027 548.372 215.027ZM563.641 221.124C567.264 221.124 569.797 218.944 569.797 216.175C569.797 213.701 568.354 212.434 565.997 211.786L563.169 211.021C561.608 210.579 561.137 209.842 561.137 208.929C561.137 207.751 562.109 206.985 563.7 206.985C565.231 206.985 566.586 207.869 566.763 209.636H569.561C569.355 205.748 566.439 204.305 563.788 204.305C560.96 204.305 558.132 205.777 558.132 209.047C558.132 211.197 559.222 212.788 561.431 213.406L564.672 214.32C566.439 214.82 566.763 215.468 566.763 216.323C566.763 217.678 565.496 218.414 563.876 218.414C562.256 218.414 560.725 217.884 560.342 215.822H557.425C557.749 219.416 560.725 221.124 563.641 221.124ZM575.133 226.573H577.96L586.061 204.746H582.88L578.756 216.853L574.131 204.746H570.979L577.342 220.623L575.133 226.573ZM595.823 220.653V218.149C595.411 218.267 594.733 218.326 594.35 218.326C593.143 218.326 592.259 217.943 592.259 216.794V207.427H595.558V204.746H592.259V200.711H589.313V204.746H586.721V207.427H589.195V217.354C589.195 219.828 590.963 220.977 593.614 220.977C594.439 220.977 595.263 220.859 595.823 220.653ZM605.946 221.124C609.333 221.124 612.456 218.885 612.956 215.351H610.158C609.716 217.088 607.978 218.355 605.946 218.355C603.295 218.355 601.115 216.912 600.909 213.436H613.015V212.582C613.015 207.397 609.598 204.305 605.651 204.305C601.527 204.305 597.786 207.397 597.786 212.552C597.786 218.031 601.027 221.124 605.946 221.124ZM605.651 207.044C607.89 207.044 609.598 208.311 609.981 211.138H601.056C601.527 208.016 603.737 207.044 605.651 207.044ZM619.488 212.582C619.488 209.607 621.167 207.692 624.113 207.692C624.555 207.692 625.026 207.721 625.438 207.81V204.599C625.085 204.511 624.643 204.481 624.319 204.481C621.639 204.481 620.107 206.543 619.488 208.34V204.746H616.425V220.682H619.488V212.582Z" fill="#1B1917"/>
<path d="M459.864 189H633.592V181H459.864V189ZM636.956 192.364V230H644.956V192.364H636.956ZM633.592 233.364H459.864V241.364H633.592V233.364ZM456.5 230V192.364H448.5V230H456.5ZM459.864 233.364C458.006 233.364 456.5 231.858 456.5 230H448.5C448.5 236.276 453.588 241.364 459.864 241.364V233.364ZM636.956 230C636.956 231.858 635.45 233.364 633.592 233.364V241.364C639.868 241.364 644.956 236.276 644.956 230H636.956ZM633.592 189C635.45 189 636.956 190.506 636.956 192.364H644.956C644.956 186.088 639.868 181 633.592 181V189ZM459.864 181C453.588 181 448.5 186.088 448.5 192.364H456.5C456.5 190.506 458.006 189 459.864 189V181Z" fill="#1B1917"/>
<rect x="0.5" y="0.5" width="860" height="421" stroke="#C8C5C3"/>
</svg>
